icons/outline/artboard-off.svg

<!--
category: Design
tags: [graphics, drawing, design, art, canvas]
version: "1.62"
unicode: "f0ae"
-->
<svg
  xmlns="http://www.w3.org/2000/svg"
  width="24"
  height="24"
  viewBox="0 0 24 24"
  fill="none"
  stroke="currentColor"
  stroke-width="2"
  stroke-linecap="round"
  stroke-linejoin="round"
>
  <path d="M12 8h3a1 1 0 0 1 1 1v3m-.284 3.698a1 1 0 0 1 -.716 .302h-6a1 1 0 0 1 -1 -1v-6c0 -.273 .11 -.52 .287 -.7m-5.287 -.3h1m-1 8h1m4 -13v1m8 -1v1m4 4h1m-1 8h1m-13 4v1m8 -1v1m-13 -18l18 18" />
</svg>

<!--
category: Design
tags: [graphics, drawing, design, art, canvas]
version: "1.62"
unicode: "f0ae"
-->
<svg
  xmlns="http://www.w3.org/2000/svg"
  width="24"
  height="24"
  viewBox="0 0 24 24"
  fill="none"
  stroke="currentColor"
  stroke-width="2"
  stroke-linecap="round"
  stroke-linejoin="round"
>
    <path d="M12 8h3a1 1 0 0 1 1 1v3M15.716 15.698a1 1 0 0 1 -.716 .302h-6a1 1 0 0 1 -1 -1v-6c0 -.273 .11 -.52 .287 -.7M3 8h1M3 16h1M8 3v1M16 3v1M20 8h1M20 16h1M8 20v1M16 20v1M3 3l18 18" />
</svg>
